packages/kaspersky-hexa-ui-icons/src/iconsSVGs/24/Change3.svg

<svg width="24" height="24" viewBox="0 0 24 24" fill="none" xmlns="http://www.w3.org/2000/svg">
<path opacity="0.2" d="M16.2929 2.2929C15.9024 2.68343 15.9024 3.31659 16.2929 3.70712L18.5858 6.00001L10 6.00001C9.44772 6.00001 9 6.44773 9 7.00001C9 7.5523 9.44771 8.00001 10 8.00001L18.5858 8.00001L16.2929 10.2929C15.9024 10.6834 15.9024 11.3166 16.2929 11.7071C16.6834 12.0976 17.3166 12.0976 17.7071 11.7071L21.706 7.70821L21.7161 7.69802C21.8075 7.60427 21.8769 7.49702 21.9241 7.3828C21.9727 7.26576 21.9996 7.13751 22 7.00301L22 7.00001L22 6.99701C21.9992 6.74209 21.9016 6.4874 21.7071 6.2929L17.7071 2.2929C17.3166 1.90238 16.6834 1.90238 16.2929 2.2929Z" fill="black"/>
<path d="M7.70711 21.7071C8.09763 21.3166 8.09763 20.6834 7.70711 20.2929L5.41421 18H14C14.5523 18 15 17.5523 15 17C15 16.4477 14.5523 16 14 16H5.41421L7.70711 13.7071C8.09763 13.3166 8.09763 12.6834 7.70711 12.2929C7.31658 11.9024 6.68342 11.9024 6.29289 12.2929L2.29289 16.2929C1.90237 16.6834 1.90237 17.3166 2.29289 17.7071L6.29289 21.7071C6.68342 22.0976 7.31658 22.0976 7.70711 21.7071Z" fill="black"/>
</svg>

<svg xmlns="http://www.w3.org/2000/svg" width="24" height="24" fill="none" viewBox="0 0 24 24"><path d="M0 24h24V0H0z"/><path d="M2 22h20V2H2z"/><path fill="#000" d="M7.7071 21.7071c.3905-.3905.3905-1.0237 0-1.4142L5.4142 18H14c.5523 0 1-.4477 1-1s-.4477-1-1-1H5.4142l2.293-2.2929c.3904-.3905.3904-1.0237 0-1.4142-.3906-.3905-1.0238-.3905-1.4143 0l-4 4c-.3905.3905-.3905 1.0237 0 1.4142l4 4c.3905.3905 1.0237.3905 1.4142 0"/></svg>
